Sources/FrostedUI/Resources/Icons.xcassets/thumbUp24.imageset/thumb-up-24.svg

<svg width="24" height="24" viewBox="0 0 24 24" fill="none" xmlns="http://www.w3.org/2000/svg" data-fui-icon="true">
  <path
    d="M11.6113 2C13.2964 2.0002 14.5934 3.50403 14.333 5.17383L13.8916 8H18.2588C20.5547 8 22.3112 10.0448 21.9658 12.3145L21.1289 17.8145C20.85 19.6464 19.275 21 17.4219 21H3.75C2.78352 21 2 20.2165 2 19.25V11.75C2 10.7835 2.78352 10 3.75 10H6.4209L10.0537 2.94824C10.3543 2.36479 10.9572 2 11.6113 2ZM3.75 11.5C3.61192 11.5 3.5 11.6119 3.5 11.75V19.25C3.5 19.3881 3.61192 19.5 3.75 19.5H6V11.5H3.75ZM11.6113 3.5C11.5166 3.5 11.43 3.55361 11.3877 3.63574L7.5 11.1816V19.5H17.4219C18.5337 19.5 19.4791 18.688 19.6465 17.5889L20.4834 12.0889C20.6906 10.7271 19.6363 9.5 18.2588 9.5H13.0156C12.7967 9.49986 12.5887 9.40361 12.4463 9.2373C12.304 9.07098 12.2417 8.85102 12.2754 8.63477L13.0156 8.75V8.74902L12.2754 8.63477L12.8506 4.94238C12.9683 4.18695 12.3806 3.5002 11.6113 3.5Z"
    fill="currentColor"
  />
</svg>

<svg xmlns="http://www.w3.org/2000/svg" width="24" height="24" fill="none" data-fui-icon="true" viewBox="0 0 24 24"><path fill="currentColor" d="M11.611 2a2.754 2.754 0 0 1 2.722 3.174L13.892 8h4.367a3.75 3.75 0 0 1 3.707 4.315l-.837 5.5A3.75 3.75 0 0 1 17.422 21H3.75A1.75 1.75 0 0 1 2 19.25v-7.5c0-.966.784-1.75 1.75-1.75h2.67l3.634-7.052c.3-.583.903-.948 1.557-.948M3.75 11.5a.25.25 0 0 0-.25.25v7.5c0 .138.112.25.25.25H6v-8zm7.861-8a.25.25 0 0 0-.223.136L7.5 11.182V19.5h9.922a2.25 2.25 0 0 0 2.224-1.911l.837-5.5A2.25 2.25 0 0 0 18.26 9.5h-5.243a.75.75 0 0 1-.74-.865l.74.115v-.001l-.74-.114.575-3.693A1.253 1.253 0 0 0 11.61 3.5"/></svg>
